src/_assets/icons/Comment.svg

<svg width="16" height="16" viewBox="0 0 16 16" fill="none" xmlns="http://www.w3.org/2000/svg">
<path d="M1 11.018V2.29194C1 2.13592 1.07042 1.9799 1.21125 1.82388C1.35208 1.66785 1.49833 1.58984 1.65 1.58984H10.0837C10.2463 1.58984 10.3979 1.66507 10.5387 1.81552C10.6796 1.96597 10.75 2.12478 10.75 2.29194V8.24308C10.75 8.3991 10.6796 8.55512 10.5387 8.71115C10.3979 8.86717 10.2463 8.94518 10.0837 8.94518H3.6L1.4225 11.1852C1.34667 11.2632 1.25729 11.2827 1.15437 11.2437C1.05146 11.2047 1 11.1295 1 11.018ZM4.26625 12.2885C4.11458 12.2885 3.96563 12.2105 3.81938 12.0545C3.67313 11.8985 3.6 11.7424 3.6 11.5864V9.94818H11.725V4.26451H13.35C13.5017 4.26451 13.6479 4.34252 13.7887 4.49854C13.9296 4.65457 14 4.81616 14 4.98333V14.3447C14 14.4561 13.9485 14.5313 13.8456 14.5703C13.7427 14.6093 13.6533 14.5898 13.5775 14.5118L11.4162 12.2885H4.26625ZM9.775 2.59284H1.975V7.94218H9.775V2.59284Z" fill="#485F7D"/>
</svg>

<svg xmlns="http://www.w3.org/2000/svg" width="16" height="16" fill="none"><path fill="#485F7D" d="M1 11.018V2.292q0-.234.211-.468t.439-.234h8.434q.243 0 .455.226.21.225.211.476v5.951q0 .234-.211.468-.212.234-.455.234H3.6l-2.177 2.24a.23.23 0 0 1-.269.059.22.22 0 0 1-.154-.226m3.266 1.27q-.226 0-.447-.233-.219-.235-.219-.469V9.948h8.125V4.265h1.625q.228 0 .439.234.21.234.211.484v9.362a.22.22 0 0 1-.154.225.23.23 0 0 1-.268-.058l-2.162-2.223zm5.509-9.695h-7.8v5.35h7.8z"/></svg>
